ui/StatusQ/src/assets/img/icons/arrow-previous.svg

<svg fill="none" height="24" viewBox="0 0 24 24" width="24" xmlns="http://www.w3.org/2000/svg"><path clip-rule="evenodd" d="m16.3232 5.46967c-.2929-.29289-.7677-.29289-1.0606 0l-5.64652 5.64643c-.4881.4882-.4881 1.2796 0 1.7678l5.64652 5.6464c.2929.2929.7677.2929 1.0606 0s.2929-.7677 0-1.0606l-5.1161-5.1161c-.1952-.1953-.1952-.5119 0-.7072l5.1161-5.11607c.2929-.29289.2929-.76777 0-1.06066z" fill="#4360df" fill-rule="evenodd"/></svg>

<svg width="24" height="24" viewBox="0 0 24 24" fill="none" xmlns="http://www.w3.org/2000/svg">
<path fill-rule="evenodd" clip-rule="evenodd" d="M16.3232 5.46967C16.0303 5.17678 15.5555 5.17678 15.2626 5.46967L9.61608 11.1161C9.12798 11.6043 9.12798 12.3957 9.61608 12.8839L15.2626 18.5303C15.5555 18.8232 16.0303 18.8232 16.3232 18.5303C16.6161 18.2374 16.6161 17.7626 16.3232 17.4697L11.2071 12.3536C11.0119 12.1583 11.0119 11.8417 11.2071 11.6464L16.3232 6.53033C16.6161 6.23744 16.6161 5.76256 16.3232 5.46967Z" fill="#4360DF"/>
</svg>
